X:1
T:The Sally Gardens
R:reel
M:4/4
L:1/8
K:G
|:~G2DG BAGB|dBeB dBAB|~d2Bd efge|dBAB GEDE|
|~G2DG BAGB|dBeB dBAB|~d2Bd efge|1 dBAB G2BA:|2 dBAB GABc|]
|:dggf ~g2dg|~g2bg aged|eaag ~a2ea|~a2bg ageg|
|dggf ~g2dg|~g2bg ageg|~d2Bd efge|1 dBAB GABc:|2 dBAB GEDE|]